X:1
T:Psaume 38
T:Psaume 38
T:Claude Goudimel
%%score [ 1 2 3 4 ]
L:1/8
Q:1/2=120
M:4/2
K:C
V:1 treble nm="Superius" snm="S."
V:2 treble nm="Altus" snm="A."
V:3 treble-8 nm="Tenor" snm="T."
V:4 bass nm="Bassus" snm="B."
V:1
 A8 ^G8 | A4 G4 A4 B4 | c8 B8 | z4 c8 B4 | A8 ^G8 | z8 A4 A4 | c8 A4 A4- | A4 ^G4 A8 | z8 c8 | %9
w: Las! en|ta fu- reur ai-|gu- e,|Ne m'ar-|gu- e|de mo|fait, Dieu tout-|* puis- sant:|To|
 c8 B4 A4 | c4 B4 A8 | ^G8 z4 A4- | A4 G4 F8 | E8 z8 | G8 c8 | B4 G4 F4 A4- | A2 ^G^F ^G4 A8 |] %17
w: ar- deur un|peu re- ti-|re, N'en|_ ton ir-|e|Ne me|pu- ni lan- guis-|* * * * sant.|
V:2
 E8 E8 | C4 E4 E4 G4 | G8 G8 | z4 G8 G4 | E8 E8 | z8 F4 F4 | G8 F4 F4 | E8 E8 | z8 A8 | G8 G4 E4 | %10
w: Las! en|ta fu- reur ai-|gu- e,|Ne m'ar-|gu- e|de mo|fait, Dieu tout-|puis- sant:|To|ar- deur un|
 E4 E4 E8 | E8 z4 E4- | E4 E4 C8 | C8 z8 | E8 G8 | G4 E4 C8 | E8 E8 |] %17
w: peu re- ti-|re, N'en|_ ton ir-|e|Ne me|pu- ni lan-|guis- sant.|
V:3
 c8 B8 | A4 B4 c4 d4 | e8 d8 | z4 e8 d4 | c8 B8 | z8 d4 d4 | e8 c4 d4 | B8 A8 | z8 e8 | e8 d4 c4 | %10
w: Las! en|ta fu- reur ai-|gu- e|Ne m'ar-|gu- e|de mo|fait, Dieu tout-|puis- sant:|To|ar- deur un|
 A4 B4 c8 | B8 z4 c4- | c4 B4 A8 | G8 z8 | c8 e8 | d4 c4 A8 | B8 A8 |] %17
w: peu re- ti-|re, N'en|_ ton ir-|e|Ne me|pu- ni lan-|guis- sant.|
V:4
 A,8 E,8 | F,4 E,4 A,4 G,4 | C8 G,8 | z4 C,8 G,4 | A,8 E,8 | z8 D,4 D,4 | C,8 F,4 D,4 | E,8 A,,8 | %8
w: Las! en|ta fu- reur ai-|gu- e,|Ne m'ar-|gu- e|de mo|fait, Dieu tout-|puis- sant:|
 z8 A,8 | C8 G,4 A,4 | A,4 ^G,4 A,8 | E,8 z4 A,4- | A,4 E,4 F,8 | C,8 z8 | C,8 C,8 | G,4 C,4 F,8 | %16
w: To|ar- deur un|peu re- ti-|re, N'en|_ ton ir-|e|Ne me|pu- ni lan-|
 E,8 A,,8 |] %17
w: guis- sant.|

